background/bg_abo_layered_waves.svg

<svg width="1920" height="1080" xmlns="http://www.w3.org/2000/svg"><defs><linearGradient id="a" x1="0%" y1="0%" x2="100%" y2="100%"><stop offset="0%" stop-color="#fffd00"/><stop offset="100%" stop-color="gold"/></linearGradient></defs><path fill="url(#a)" d="M0 0h1920v1080H0z"/><path d="m194 0 18 25.7c18 25.6 54 77 73.2 128.5 19.1 51.5 21.5 103.1 3.6 154.6-17.8 51.5-55.8 102.9-76 154.2-20.1 51.3-22.5 102.7-3.3 154s59.8 102.7 64.2 154.2c4.3 51.5-27.7 103.1-44.4 154.6-16.6 51.5-18 102.9-18.6 128.5l-.7 25.7H0V0z" fill="#036"/><path d="m179 0-5.8 25.7c-5.9 25.6-17.5 77-11 128.5s31.1 103.1 34 154.6C199 360.3 180 411.7 167.7 463c-12.4 51.3-18 102.7-24.7 154-6.7 51.3-14.3 102.7-20 154.2-5.7 51.5-9.3 103.1-6.5 154.6 2.8 51.5 12.2 102.9 16.8 128.5l4.7 25.7H0V0z" fill="#0056b0"/><path d="m68 0 3 25.7c3 25.6 9 77 8.3 128.5-.6 51.5-8 103.1-12.1 154.6C63 360.3 62 411.7 68.5 463c6.5 51.3 20.5 102.7 31 154S117 719.7 122 771.2c5 51.5 8 103.1 6.8 154.6-1.1 51.5-6.5 102.9-9.1 128.5L117 1080H0V0z" fill="#007bff"/></svg>

<svg id="visual" viewBox="0 0 1920 1080" width="1920" height="1080" xmlns="http://www.w3.org/2000/svg" xmlns:xlink="http://www.w3.org/1999/xlink" version="1.1">
  <defs>
    <linearGradient id="backgroundGradient" x1="0%" y1="0%" x2="100%" y2="100%">
      <stop offset="0%" stop-color="#fffd00"></stop>
      <stop offset="100%" stop-color="#ffd700"></stop>
    </linearGradient>
  </defs>
  <rect width="1920" height="1080" x="0" y="0" fill="url(#backgroundGradient)"></rect>
  <path d="M194 0L212 25.7C230 51.3 266 102.7 285.2 154.2C304.3 205.7 306.7 257.3 288.8 308.8C271 360.3 233 411.7 212.8 463C192.7 514.3 190.3 565.7 209.5 617C228.7 668.3 269.3 719.7 273.7 771.2C278 822.7 246 874.3 229.3 925.8C212.7 977.3 211.3 1028.7 210.7 1054.3L210 1080L0 1080L0 1054.3C0 1028.7 0 977.3 0 925.8C0 874.3 0 822.7 0 771.2C0 719.7 0 668.3 0 617C0 565.7 0 514.3 0 463C0 411.7 0 360.3 0 308.8C0 257.3 0 205.7 0 154.2C0 102.7 0 51.3 0 25.7L0 0Z" fill="#003366"></path>
  <path d="M179 0L173.2 25.7C167.3 51.3 155.7 102.7 162.2 154.2C168.7 205.7 193.3 257.3 196.2 308.8C199 360.3 180 411.7 167.7 463C155.3 514.3 149.7 565.7 143 617C136.3 668.3 128.7 719.7 123 771.2C117.3 822.7 113.7 874.3 116.5 925.8C119.3 977.3 128.7 1028.7 133.3 1054.3L138 1080L0 1080L0 1054.3C0 1028.7 0 977.3 0 925.8C0 874.3 0 822.7 0 771.2C0 719.7 0 668.3 0 617C0 565.7 0 514.3 0 463C0 411.7 0 360.3 0 308.8C0 257.3 0 205.7 0 154.2C0 102.7 0 51.3 0 25.7L0 0Z" fill="#0056b0"></path>
  <path d="M68 0L71 25.7C74 51.3 80 102.7 79.3 154.2C78.7 205.7 71.3 257.3 67.2 308.8C63 360.3 62 411.7 68.5 463C75 514.3 89 565.7 99.5 617C110 668.3 117 719.7 122 771.2C127 822.7 130 874.3 128.8 925.8C127.7 977.3 122.3 1028.7 119.7 1054.3L117 1080L0 1080L0 1054.3C0 1028.7 0 977.3 0 925.8C0 874.3 0 822.7 0 771.2C0 719.7 0 668.3 0 617C0 565.7 0 514.3 0 463C0 411.7 0 360.3 0 308.8C0 257.3 0 205.7 0 154.2C0 102.7 0 51.3 0 25.7L0 0Z" fill="#007bff"></path>
</svg>
